X: 41342
T: Turnberry Road
R: jig
M: 6/8
K: Gmajor
|:GBd {B}c2A|BAG gfd|ecA A2G|FAE DEF|
GBd Ace|Bdf g2g|{B}c2A ecA|1 AGF GDE:|2 AGF Gda||
|:g2g gfd|{B}c2A ecA|EFA f2e|edc dBA|
GBd Ace|Bdf g2g|{B}c2A ecA|1 AGF Gda:|2 AGF GFE||
|:DFA d3|GBd g2A-|A^ce gec|d(3 fga g2a|
bge afd|fgg fdB-|BBB dAF|1 GFE DFE:|2 GFE DEF||

